X: 3
T: Parting Glass, The
Z: Alan Parker
S: https://thesession.org/tunes/6275#setting23805
R: reel
M: 4/4
L: 1/8
K: Emin
|: BA G2 E2 E2 | DE G2 G2 A2 | GA B2 B2 BA | GA B2 D2 D2 |
BA G2 E2 E2 | DE G2 G2 A2 | GA B2 e2 d2 | BA G2 E2 E2 :|
|: Bc dB e2 d2 z| dd B e2 d3 | B c2 cB A2 G | A B2 D2 D2 B |
A G2 E2 E2 D | E G2 G2 A2 G | A B2 e2 d2 B | A G2 E2 E3 :|
